X:1
T:Quando da gli'occhi
T:Philippe de Monte
T:Source : Musica divina---Anversa---P.Phalesio & G.Bellero---1583. Editor: André Vierendeels (08/12/13).
T:Quando da gli'occhi
C:Philippe de Monte
%%score [ 1 [ 2 3 ] 4 ]
L:1/8
Q:1/4=120
M:4/4
K:C
V:1 treble nm="Canto" snm="C"
V:2 treble-8 nm="Tenor 1" snm="T 1"
V:3 treble-8 nm="Tenor 2" snm="T 2"
V:4 bass nm="Basso" snm="B"
V:1
 G8 | G8- | G4 G4 | F4 F4 | E4 E4 | D2 ^C2 D4 | D4 z2 G2 | G2 F2 G4 | G4 z4 | c3 B A2 A2 | %10
w: Quan-|do|_ da|gli'oc- chi|del di-|vin mio so-|le, di-|vin mio so-|le,|fol- go- ran- do,|
 d3 c B4 | B2 G2 c4- | c2 d2 B2 B2 | e4 c2 e2 | d2 B2 c4 | B8 | z2 A2 c2 c2 | B4 A2 A2 | %18
w: fol- go- ran-|do nel cor|_ gl'ac- ce- si|ra- i, gl'ac-|ce- si ra-|i,|a mil- l'a|mil- le, a|
 c2 c2 B2 A2 | z8 | z2 F4 E2 | E4 ^F2 G2- | G2 ^F2 G4- | G4 z2 G2 | E2 C2 G4 | C2 F2 E2 G2 | %26
w: mil- l'a mil- le||vi- d'us-|cir- m'i ra-|* * i|_ an-|zi m'ac- cor-|si, an- zi m'ac-|
 A4 G2 c2- | c2 A2 A2 d2 | B4 G4- | G4 G4 | G4 ^F4 | G4 G2 G2- | G2 d4 d2 | d8 | B8 | z2 d2 B2 c2 | %36
w: cor- si, che|_ co- m'e- gli|so- le,|_ a-|mor vi|e- ra, a-|* mor vi|e-|ra|on- d'io con|
 d2 d2 e4 | d4 c4 | B4 z2 c2 | c2 c2 c2 c2 | d8 | c2 c4 c2 | c4 z2 d2- | d2 A4 c2- | c2 d2 c4- | %45
w: le pa- rol-|le me-|ste, con|le pa- rol- le|me-|ste,- e so-|spir, e|_ so- spir|_ fo- co-|
 c2 B2 A4 | ^G4 z2 G2 | G2 ^F2 G4 | G8 | z8 | z4 c4- | c4 B4- | B4 A4- | A4 G4 | z8 | z4 c4- | %56
w: |si all'|hor gri- da-|i:||hai|_ cru-|* d'a-|* mor,||hai|
 c4 B4- | B4 A4 | ^G4 z2 A2 | A2 ^G2 A2 c2- | c2 c2 c4- | c4 c4 | z2 G2 A2 B2 | c8 | B8 | d8- | %66
w: _ cru-|* d'a-|mor, hai|cru- d'a- mor di|_ me las-|* so|non hai pie-|ta-|de,|hai-|
 d8 | B8 | z4 B4 | c8 | d8- | d4 A4 | A6 B2 | c2 B2 A4 | G4 G4 | G2 ^F2 G4 | G4 c4- | c4 B4- | %78
w: |me,|hai|me|_|* co-|si che|te tien vuo-|le, che|ti tien vuo-|le, hai|_ me|
 B4 G4 | A4 A4 | G4 G4 | G8 | G8 |] %83
w: _ co-|si chi|te tien|vuo-|le.|
V:2
 e8 | d8- | d4 d4 | d4 d4 | B4 c4 | A2 G2 A4 | B4 e4 | d2 c2 d4 | e2 g4 g2 | a2 a2 a3 g | %10
w: Quan-|do|_ da|gli'oc- chi|del di-|vin mio so-|le, di-|vin mio so-|le, fol- go-|ran- do, fol- go-|
 f3 e d2 d2 | e4 z2 e2 | a4 z2 g2- | g2 g4 a2- | a2 ^g2 a4 | z2 e2 g2 g2 | f4 e4 | z2 d2 d2 c2 | %18
w: ran- * do nel|cor, nel|cor gl'ac-|* ce- si|_ ra- i,|a mil- l'a|mil- le,|a mil- l'a|
 e4 e2 f2- | f2 e2 d2 c2- | c2 B2 c4 | z4 z2 d2 | c2 A2 d4 | G6 d2 | g2 g2 e4 | e2 a2 g2 e2 | %26
w: mil- le vi-|* d'us- cir- m'i|_ ra- i|an-|zi m'ac- cor-|si, an-|zi m'ac- cor-|si, an- zi m'ac-|
 f4 e2 e2- | e2 f2 f2 f2 | g4 e4 | z4 d4 | c2 A2 a4 | d4 e4 | d4 g4- | g4 ^f4 | g4 d4 | %35
w: cor- si, che|_ co- m'e- gli|so- le,|a-|mor vi e-|ra, a-|mor vi|_ e-|ra on-|
 B2 G2 g2 g2 | f2 d2 g4 | g2 g2 e2 f2 | g2 g2 a4 | g8 | _b8 | a8 | z2 g4 d2 | f4 z2 e2- | %44
w: d'io con le pa-|rol- le me-|ste, con le pa-|rol- le me-|||ste,|e so-|spir, e|
 e2 d2 e4- | e2 e4 d2 | e4 c4 | B2 c4 B2 | c4 e4 | d8 | c8 | d4 g4 | f8- | f4 e4 | g4 d4 | d4 c4 | %56
w: _ so- spir|_ fo- co-|si all'|hor gri- da-|i: hai|cru-|d'a-|mor, hai|cru-|* d'a-|mor, hai|cru- d'a-|
 d4 z2 g2 | g4 e4 | e4 d4 | e2 e2 e2 a2- | a2 a2 a4- | a4 g4 | z2 e2 f2 g2- | g2 fe ^f4 | g8 | %65
w: mor, hai|cru- d'a-|mor, hai|cru- d'a- mor di|_ me las-|* so|non hai pie-|* * * ta-|de,|
 ^f4 g4- | g4 ^f4 | g8- | g8 | G8 | _B4 A2 G2 | A4 z2 d2 | d6 G2 | c2 G2 d4 | G4 c4 | B2 c2 d4 | %76
w: hai _|_ _|me,|_|hai|_ _ _|me, co-|si che|te tien vuo-|le, che|ti tien vuo-|
 e4 g4- | g4 g4- | g4 z2 g2 | f4 f4 | e4 e4 | d8 | e8 |] %83
w: le, hai|_ me|_ co-|si chi|te tien|vuo-|le.|
V:3
 c8 | B8- | B4 B4 | A4 A4 | G4 G4 | ^F2 G4 F2 | G6 c2 | B2 c4 B2 | c4 e3 d | c4 c2 A2- | %10
w: Quan-|do|_ da|gli'oc- chi|del di-|vin mio so-|le, di-|vin mio so-|le, fol- go-|ran- do, fol-|
 A2 A2 B2 G2 | g3 f e4 | f2 f2 d4 | z2 c2 e4 | z2 d2 e2 e2 | g4 e2 e2 | a2 a2 g4 | d2 d2 f2 f2 | %18
w: * go- ran- do,|fol- go- ran-|do nel cor,|nel cor|gl'ac- ce- si|ra- i, a|mil- l'a mil-|le, a mil- l'a|
 g4 g2 c2- | c2 B2 A2 G2 | F4 G2 A2- | A2 G2 A2 B2 | c4 B2 B2 | B2 c4 B2 | c4 z2 c2 | A2 F2 c4 | %26
w: mil- le vi|_ d'us- cir- m'i|ra- i, vi-|* d'us- cir- m'i|ra- i, an-|zi m'ac- cor-|si, an-|zi m'ac- cor-|
 F4 c2 A2- | A2 d4 d2 | G4 c4- | c4 B4 | c4 A2 c2- | c2 B2 z2 c2- | c2 B4 B2 | A8 | G2 d2 B2 c2 | %35
w: si, che co-|* m'e- gli|so- le,|_ a-|mor vi e-|* ra, a-|* mor vi-|e-|ra on- d'io con|
 d2 d2 e4 | d4 c4 | B4 z2 c2 | d2 d2 f4- | f2 e2 e2 e2 | f8 | f4 z2 f2- | f2 e2 d4 | z2 d4 c2 | %44
w: le pa- rol-|me me-|ste, on-|d'io con le|_ pa- rol- le|me-|ste, e|_ so- spir,|e so-|
 c2 B2 A4- | A2 G2 F4 | E4 e4 | d2 c2 d4 | e4 g4- | g4 g4- | g4 ^f4 | g4 d4 | d8 | c8 | d4 g4 | %55
w: spir fo- co-||si all'|hor gri- da-|i: hai|_ cru-|* d'a-|mor, hai|cru-|d'a-|mor, hai|
 g4 f4 | g4 d4 | d6 c2 | B4 z2 A2 | B2 B2 A2 e2- | e2 e2 f4- | f4 e4 | z2 c2 c2 G2 | c6 d2 | %64
w: cru- d'a-|mor, hai|cru- d'a-|mor, hai|cru- d'a- mor di|_ me las-|* so|non hai pie-|ta- *|
 e4 d4 | z4 _B4- | B2 AG A4 | G4 d4 | d8 | z4 g4- | g4 ^f2 e2 | ^f4 z2 f2 | ^f6 g2 | e2 g4 ^f2 | %74
w: * de,|hai|_ _ _ _|me, hai|me,|hai|_ _ _|me, co-|si che|te tien vuo-|
 g4 e4 | d2 c4 B2 | c4 e4- | e4 d4- | d2 B4 c2- | c2 A4 d2 | B4 c4- | c2 BA B4 | c8 |] %83
w: le, che|ti tien vuo-|le, hai|_ me,|_ _ co-|* si chi|te tien|_ _ _ vuo-|le.|
V:4
 C,8 | G,8- | G,4 G,4 | D,4 D,4 | E,4 C,4 | D,2 E,2 D,4 | G,,4 C,4 | G,2 A,2 G,4 | C,4 C3 B, | %9
w: Quan-|do|_ da|gli'oc- chi|del di-|vin mio so-|le, di-|vin mio so-|le, fol- go-|
 A,2 A,2 F,3 E, | D,2 D,2 G,3 F, | E,4 A,4 | z2 D,2 G,4 | C,2 C4 C2 | B,4 A,4 | z8 | z4 z2 E,2 | %17
w: ran- do, fol- go-|ran- do, fol- go-|ran- do|nel cor|gl'ac- ce- si|ra- i,||a|
 G,2 G,2 F,4 | E,4 z2 A,2- | A,2 G,2 F,2 E,2 | D,4 C,2 C2- | C2 B,2 A,2 G,2 | A,4 G,2 G,2 | %23
w: mil- l'a mil-|le vi-|* d'us- cir- m'i|ra- i, vi-|* d'us- cir- m'i|ra- i, an-|
 E,2 C,2 G,4 | C,8 | z8 | z8 | z8 | z4 C,4 | G,4 G,4 | A,8 | G,4 C,4 | G,,4 G,,4 | D,8 | G,,8 | %35
w: zi m'ac- cor-|si,||||a-|mor vi|e-|ra, a-|mor vi|e-|ra|
 z8 | z2 G,2 E,2 F,2 | G,2 G,2 A,4 | G,4 F,4 | C,2 C2 C2 C2 | _B,8 | F,4 z2 F,2- | %42
w: |on- d'io con|le pa- rol-|le me-|ste, pa- rol- le|me-|ste, e|
 F,2 C,2 G,2 G,2 | D,4 A,4 | z8 | z8 | z4 C,4 | G,2 A,2 G,4 | C,4 C4- | C4 B,4- | B,4 A,4 | G,8 | %52
w: _ so- spir, e|so- spir|||all'|hor gri- da-|i: hai|_ cru-|* d'a-|mor,|
 z8 | z4 C4- | C4 B,4- | B,4 A,4 | G,8- | G,4 A,4 | E,4 F,4 | E,4 A,4- | A,2 A,2 F,4- | F,4 C,4 | %62
w: |hai|_ cru-|* d'a-|mor,|_ hai|cru- d'a-|mor di|_ me las-|* so|
 z2 C,2 F,2 E,2 | A,8 | G,8 | D,8- | D,8 | G,,8 | G,8 | E,8 | D,8- | D,8 | z8 | z8 | z4 C,4 | %75
w: non hai pie-|ta-|de,|hai|_|me,|hai|_|me,|_|||chi|
 G,2 A,2 G,4 | C,4 C,4- | C,4 G,4- | G,4 E,4 | F,4 D,4 | E,4 C,4 | G,8 | C,8 |] %83
w: te tien vuo-|le, hai|_ me|_ co-|si chi|te tien|vuo-|le.|

